symbolic/64x64/apps/kuiviewer.svg

<svg xmlns="http://www.w3.org/2000/svg" width="64" height="64" version="1.1">
 <path style="opacity:0.2" d="M 52.495005,5.6047204 49.55847,4.3440973 C 48.654076,3.9552269 47.601609,4.3052988 47.114571,5.1546586 L 46.189823,6.7496877 C 44.939066,6.554196 43.668681,6.53415 42.408357,6.6805893 L 41.504818,5.0160102 C 41.040264,4.155291 39.993194,3.7772084 39.080329,4.1335638 l -2.971841,1.1798499 c -0.910472,0.3636946 -1.413533,1.347064 -1.157478,2.2949546 l 0.48968,1.8218277 c -1.044561,0.775524 -1.974995,1.686112 -2.763936,2.715426 L 30.82248,11.591499 c -0.944415,-0.279918 -1.945895,0.183916 -2.336207,1.084797 l -1.261109,2.939752 c -0.390462,0.900924 -0.03904,1.949177 0.813638,2.43439 l 1.787413,1.026288 c -0.14818,1.191033 -0.14692,2.393532 0.0044,3.582852 l -1.810575,0.974521 c -0.864124,0.462722 -1.2437,1.505666 -0.88596,2.414861 l 1.184517,2.960135 c 0.365154,0.906877 1.35239,1.407965 2.304031,1.152919 l 2.105909,-0.563283 c 0.680186,0.876341 1.463178,1.665207 2.332037,2.363407 l -0.631995,2.104001 c -0.281068,0.940545 0.18462,1.938157 1.089013,2.327027 l 2.936535,1.260621 c 0.904539,0.388828 1.956863,0.03882 2.444049,-0.810602 l 1.094763,-1.888537 c 1.143764,0.16322 2.303413,0.19248 3.450079,0.07228 l 1.057637,1.957095 c 0.464556,0.86072 1.511624,1.238802 2.424339,0.882492 l 2.971797,-1.179858 c 0.910469,-0.363695 1.413557,-1.346989 1.157479,-2.294953 l -0.554179,-2.060737 c 0.994109,-0.727999 1.886013,-1.578521 2.658114,-2.530017 l 2.022445,0.600216 c 0.944268,0.279962 1.945748,-0.18388 2.336211,-1.084795 l 1.265608,-2.924965 c 0.390312,-0.900882 0.03888,-1.949133 -0.813788,-2.434349 L 58.17385,22.933012 c 0.17788,-1.199998 0.204142,-2.418803 0.0653,-3.620124 l 1.740845,-0.937322 c 0.864124,-0.462724 1.243698,-1.505667 0.885958,-2.414862 l -1.184468,-2.96014 C 59.316304,12.09369 58.329066,11.5926 57.377426,11.847648 l -1.881013,0.503371 C 54.781882,11.388186 53.951848,10.524885 53.018156,9.773447 L 53.571454,7.9434565 C 53.867486,6.998552 53.399554,5.9935514 52.495007,5.6047236 Z"/>
 <path style="opacity:0.2" d="m 6.7661118,48.72997 c 0.3015392,1.034032 0.7200014,2.031135 1.2492318,2.966689 l -1.5076929,1.901883 c -0.4923082,0.62165 -0.4369232,1.507965 0.1169259,2.068065 L 9.2215021,58.264 c 0.5600005,0.560101 1.4461559,0.609279 2.0676949,0.11688 l 1.889233,-1.495648 c 0.972309,0.560162 2.006156,0.997102 3.08308,1.30485 l 0.283078,2.431209 C 16.636898,61.409124 17.301511,62 18.089204,62 h 3.67385 c 0.78769,0 1.452308,-0.590938 1.544618,-1.378711 L 23.57844,58.27625 c 1.156923,-0.301592 2.264619,-0.750904 3.304618,-1.335626 l 1.827695,1.446414 c 0.621538,0.492397 1.507694,0.437001 2.067693,-0.11694 l 2.596929,-2.597393 c 0.56,-0.560102 0.609228,-1.446416 0.11694,-2.068067 l -1.421547,-1.803407 c 0.59077,-1.021786 1.052309,-2.111151 1.360001,-3.249821 l 2.190765,-0.252354 c 0.787756,-0.09233 1.378464,-0.757059 1.378464,-1.544897 v -3.674506 c 0,-0.787836 -0.59077,-1.452574 -1.378464,-1.544896 L 33.461525,41.282411 C 33.166077,40.156052 32.723061,39.078934 32.15697,38.069525 l 1.329231,-1.680305 c 0.492304,-0.621646 0.43692,-1.50796 -0.11692,-2.06806 l -2.590773,-2.591244 c -0.560007,-0.5601 -1.446161,-0.60934 -2.067697,-0.11694 l -1.630775,1.292539 c -1.058457,-0.62166 -2.190829,-1.095589 -3.37846,-1.415645 L 23.45542,29.378723 c -0.09231,-0.787834 -0.756924,-1.37871 -1.544616,-1.37871 h -3.673851 c -0.787693,0 -1.452309,0.590876 -1.544616,1.37871 l -0.246153,2.111153 c -1.218463,0.326214 -2.38154,0.818607 -3.464619,1.464881 l -1.69231,-1.341789 c -0.621538,-0.492396 -1.5076932,-0.437 -2.0676933,0.11696 L 6.624636,34.32732 c -0.5600017,0.560102 -0.6092323,1.446414 -0.1169279,2.068068 l 1.4153871,1.791091 c -0.5661549,1.021721 -0.9969255,2.111149 -1.280002,3.24366 l -2.2646178,0.25851 c -0.787693,0.09234 -1.3784627,0.757058 -1.3784627,1.544893 v 3.674511 c 0,0.787833 0.5907697,1.452567 1.3784627,1.544893 l 2.387633,0.277034 z"/>
 <path style="fill:#a6a6a6" d="m 6.7661118,47.729981 c 0.3015392,1.034031 0.7200014,2.031135 1.2492318,2.966689 l -1.5076929,1.901883 c -0.4923082,0.621649 -0.4369232,1.507965 0.1169259,2.068065 l 2.5969255,2.597393 c 0.5600005,0.560101 1.4461559,0.609279 2.0676949,0.11688 l 1.889233,-1.495648 c 0.972309,0.560162 2.006156,0.997102 3.08308,1.30485 l 0.283078,2.431209 c 0.09231,0.787833 0.756923,1.378709 1.544616,1.378709 h 3.67385 c 0.78769,0 1.452308,-0.590938 1.544618,-1.378711 l 0.270768,-2.345039 c 1.156923,-0.301592 2.264619,-0.750904 3.304618,-1.335626 l 1.827695,1.446414 c 0.621538,0.492397 1.507694,0.437001 2.067693,-0.11694 l 2.596929,-2.597393 c 0.56,-0.560102 0.609228,-1.446416 0.11694,-2.068067 l -1.421547,-1.803408 c 0.59077,-1.021785 1.052309,-2.111151 1.360001,-3.24982 l 2.190765,-0.252354 c 0.787756,-0.09233 1.378464,-0.75706 1.378464,-1.544897 v -3.674507 c 0,-0.787835 -0.59077,-1.452573 -1.378464,-1.544895 L 33.461525,40.282422 C 33.166077,39.156063 32.723061,38.078945 32.15697,37.069536 l 1.329231,-1.680306 c 0.492304,-0.621645 0.43692,-1.507959 -0.11692,-2.068059 l -2.590773,-2.591244 c -0.560007,-0.5601 -1.446161,-0.60934 -2.067697,-0.11694 l -1.630775,1.292539 c -1.058457,-0.62166 -2.190829,-1.09559 -3.37846,-1.415645 L 23.45542,28.378734 c -0.09231,-0.787834 -0.756924,-1.37871 -1.544616,-1.37871 h -3.673851 c -0.787693,0 -1.452309,0.590876 -1.544616,1.37871 l -0.246153,2.111153 c -1.218463,0.326213 -2.38154,0.818607 -3.464619,1.464881 l -1.69231,-1.341789 c -0.621538,-0.492396 -1.5076932,-0.437 -2.0676933,0.11696 L 6.624636,33.327331 c -0.5600017,0.560102 -0.6092323,1.446414 -0.1169279,2.068067 l 1.4153871,1.791092 c -0.5661549,1.021721 -0.9969255,2.111149 -1.280002,3.24366 L 4.3784754,40.68866 C 3.5907824,40.781 3.0000127,41.445718 3.0000127,42.233553 v 3.674511 c 0,0.787833 0.5907697,1.452567 1.3784627,1.544893 l 2.387633,0.277034 z"/>
 <circle style="opacity:0.2" cx="20" cy="45" r="6"/>
 <circle style="fill:#ffffff" cx="20" cy="44" r="6"/>
 <path style="fill:#ffd52b" d="M 52.495005,4.6047313 49.55847,3.3441082 C 48.654076,2.9552379 47.601609,3.3053097 47.114571,4.1546695 L 46.189823,5.7496986 C 44.939066,5.5542069 43.668681,5.5341609 42.408357,5.6806002 L 41.504818,4.0160211 C 41.040264,3.1553019 39.993194,2.7772193 39.080329,3.1335747 l -2.971841,1.1798499 c -0.910472,0.3636946 -1.413533,1.347064 -1.157478,2.2949546 l 0.48968,1.8218276 C 34.396129,9.2057312 33.465695,10.116319 32.676754,11.145633 L 30.82248,10.59151 c -0.944415,-0.279918 -1.945895,0.183916 -2.336207,1.084797 l -1.261109,2.939752 c -0.390462,0.900924 -0.03904,1.949177 0.813638,2.43439 l 1.787413,1.026288 c -0.14818,1.191032 -0.14692,2.393531 0.0044,3.582852 L 28.02004,22.63411 c -0.864124,0.462722 -1.2437,1.505665 -0.88596,2.414861 l 1.184517,2.960135 c 0.365154,0.906877 1.35239,1.407965 2.304031,1.152919 l 2.105909,-0.563284 c 0.680186,0.876342 1.463178,1.665208 2.332037,2.363407 l -0.631995,2.104001 c -0.281068,0.940546 0.18462,1.938158 1.089013,2.327027 l 2.936535,1.260622 c 0.904539,0.388828 1.956863,0.03882 2.444049,-0.810602 l 1.094763,-1.888537 c 1.143764,0.16322 2.303413,0.19248 3.450079,0.07228 l 1.057637,1.957095 c 0.464556,0.86072 1.511624,1.238802 2.424339,0.882492 l 2.971797,-1.179858 c 0.910469,-0.363696 1.413557,-1.346989 1.157479,-2.294953 l -0.554179,-2.060737 c 0.994109,-0.727999 1.886013,-1.578521 2.658114,-2.530017 l 2.022445,0.600216 c 0.944268,0.279962 1.945748,-0.18388 2.336211,-1.084795 l 1.265608,-2.924965 c 0.390312,-0.900882 0.03888,-1.949133 -0.813788,-2.434349 L 58.17385,21.933022 c 0.17788,-1.199998 0.204142,-2.418802 0.0653,-3.620123 l 1.740843,-0.937322 c 0.864124,-0.462724 1.243698,-1.505667 0.885958,-2.414862 l -1.184468,-2.96014 C 59.316304,11.093701 58.329066,10.592611 57.377426,10.847658 L 55.496413,11.35103 C 54.781882,10.388197 53.951848,9.5248963 53.018156,8.7734576 l 0.553298,-1.8299902 c 0.296032,-0.9449045 -0.1719,-1.9499051 -1.076447,-2.3387329 z"/>
 <circle style="opacity:0.2" cx="44" cy="21" r="6"/>
 <circle style="fill:#ffffff" cx="44" cy="20" r="6"/>
 <path style="fill:#ffffff;opacity:0.2" d="M 18.236328 27 C 17.448635 27 16.783713 27.591072 16.691406 28.378906 L 16.445312 30.490234 C 15.22685 30.816447 14.065501 31.308804 12.982422 31.955078 L 11.289062 30.613281 C 10.667525 30.120885 9.7807032 30.176509 9.2207031 30.730469 L 6.625 33.328125 C 6.1941422 33.75906 6.0679982 34.381656 6.2558594 34.929688 C 6.3302325 34.70963 6.4504613 34.502695 6.625 34.328125 L 9.2207031 31.730469 C 9.7807032 31.176509 10.667525 31.120885 11.289062 31.613281 L 12.982422 32.955078 C 14.065501 32.308804 15.22685 31.816447 16.445312 31.490234 L 16.691406 29.378906 C 16.783713 28.591072 17.448635 28 18.236328 28 L 21.910156 28 C 22.697848 28 23.362768 28.591072 23.455078 29.378906 L 23.701172 31.490234 C 24.888803 31.810289 26.021621 32.28459 27.080078 32.90625 L 28.710938 31.613281 C 29.332474 31.120881 30.21929 31.170369 30.779297 31.730469 L 33.369141 34.320312 C 33.54677 34.49995 33.655056 34.718058 33.728516 34.945312 C 33.926107 34.392038 33.800985 33.757038 33.369141 33.320312 L 30.779297 30.730469 C 30.21929 30.170369 29.332474 30.120881 28.710938 30.613281 L 27.080078 31.90625 C 26.021621 31.28459 24.888803 30.810289 23.701172 30.490234 L 23.455078 28.378906 C 23.362768 27.591072 22.697848 27 21.910156 27 L 18.236328 27 z M 32.470703 37.671875 L 32.15625 38.070312 C 32.722341 39.079721 33.165489 40.156844 33.460938 41.283203 L 35.621094 41.535156 C 36.408788 41.627478 37 42.292243 37 43.080078 L 37 42.080078 C 37 41.292243 36.408788 40.627478 35.621094 40.535156 L 33.460938 40.283203 C 33.223227 39.37696 32.886712 38.504748 32.470703 37.671875 z M 7.6132812 37.791016 C 7.1997943 38.634793 6.8706908 39.517072 6.6425781 40.429688 L 4.3789062 40.689453 C 3.5912133 40.781793 3 41.44654 3 42.234375 L 3 43.234375 C 3 42.44654 3.5912133 41.781793 4.3789062 41.689453 L 6.6425781 41.429688 C 6.9256546 40.297176 7.3576732 39.207268 7.9238281 38.185547 L 7.6132812 37.791016 z M 7.7128906 51.080078 L 6.5078125 52.597656 C 6.1733991 53.019928 6.1100388 53.561654 6.265625 54.042969 C 6.3214436 53.886729 6.3994095 53.734539 6.5078125 53.597656 L 8.015625 51.697266 C 7.9028119 51.497839 7.8155777 51.28486 7.7128906 51.080078 z M 32.390625 51.207031 C 32.287341 51.4071 32.183207 51.605521 32.070312 51.800781 L 33.492188 53.605469 C 33.605716 53.74883 33.687834 53.906047 33.744141 54.070312 C 33.908391 53.584322 33.831042 53.033367 33.492188 52.605469 L 32.390625 51.207031 z"/>
 <path style="fill:#ffffff;opacity:0.2" d="M 39.779297 3 C 39.545504 3.0012185 39.308294 3.0437237 39.080078 3.1328125 L 36.109375 4.3125 C 35.198903 4.6761946 34.695117 5.6595313 34.951172 6.6074219 L 34.953125 6.6171875 C 35.106857 6.0424869 35.521867 5.5471842 36.109375 5.3125 L 39.080078 4.1328125 C 39.992943 3.7764571 41.039352 4.1549058 41.503906 5.015625 L 42.408203 6.6796875 C 43.668527 6.5332482 44.938696 6.5545083 46.189453 6.75 L 47.115234 5.1542969 C 47.602272 4.3049371 48.6542 3.9548797 49.558594 4.34375 L 52.494141 5.6054688 C 53.049337 5.8441249 53.439313 6.3147844 53.589844 6.8613281 C 53.834743 5.9408875 53.372566 4.983068 52.494141 4.6054688 L 49.558594 3.34375 C 48.6542 2.9548797 47.602272 3.3049371 47.115234 4.1542969 L 46.189453 5.75 C 44.938696 5.5545083 43.668527 5.5332482 42.408203 5.6796875 L 41.503906 4.015625 C 41.155491 3.3700856 40.480676 2.9963445 39.779297 3 z M 35.220703 8.6054688 C 34.267232 9.3429062 33.407602 10.191694 32.675781 11.146484 L 30.822266 10.591797 C 29.877851 10.311879 28.87664 10.7749 28.486328 11.675781 L 27.224609 14.615234 C 27.045669 15.028108 27.029153 15.470567 27.138672 15.876953 C 27.162615 15.789038 27.1874 15.701089 27.224609 15.615234 L 28.486328 12.675781 C 28.87664 11.7749 29.877851 11.311879 30.822266 11.591797 L 32.675781 12.146484 C 33.464722 11.11717 34.396845 10.205212 35.441406 9.4296875 L 35.220703 8.6054688 z M 53.257812 8.9804688 L 53.017578 9.7734375 C 53.95127 10.524876 54.781563 11.388729 55.496094 12.351562 L 57.376953 11.847656 C 58.328593 11.592609 59.316462 12.093126 59.681641 13 L 60.865234 15.960938 C 60.892005 16.028974 60.907163 16.098733 60.925781 16.167969 C 61.030088 15.779033 61.021624 15.3584 60.865234 14.960938 L 59.681641 12 C 59.316462 11.093126 58.328593 10.592609 57.376953 10.847656 L 55.496094 11.351562 C 54.844677 10.473776 54.092254 9.6834618 53.257812 8.9804688 z M 29.740234 19.027344 C 29.715144 19.462917 29.717755 19.898295 29.732422 20.333984 C 29.747599 19.914461 29.774196 19.493937 29.826172 19.076172 L 29.740234 19.027344 z M 58.3125 19.271484 L 58.238281 19.3125 C 58.278079 19.656844 58.301468 20.003247 58.314453 20.349609 C 58.327133 19.989881 58.328042 19.630776 58.3125 19.271484 z M 29.744141 21.707031 L 28.019531 22.634766 C 27.220071 23.062861 26.844031 23.985817 27.074219 24.841797 C 27.208514 24.341044 27.533167 23.895204 28.019531 23.634766 L 29.830078 22.660156 C 29.789776 22.343392 29.763165 22.025199 29.744141 21.707031 z M 58.28125 21.994141 C 58.255742 22.307681 58.220024 22.621954 58.173828 22.933594 L 59.96875 23.957031 C 60.430463 24.219772 60.739552 24.648779 60.869141 25.128906 C 61.095571 24.294684 60.739742 23.395769 59.96875 22.957031 L 58.28125 21.994141 z M 34.824219 31.75 L 34.427734 33.066406 C 34.321075 33.423322 34.324438 33.788032 34.416016 34.125 C 34.421201 34.105466 34.42191 34.085897 34.427734 34.066406 L 35.060547 31.962891 C 34.977555 31.8962 34.905629 31.818342 34.824219 31.75 z M 52.722656 32.15625 C 52.647758 32.213408 52.576104 32.274346 52.5 32.330078 L 53.052734 34.382812 C 53.136847 34.067325 53.145376 33.728293 53.054688 33.392578 L 52.722656 32.15625 z"/>
</svg>

<svg xmlns="http://www.w3.org/2000/svg" width="64" height="64"><path style="opacity:.2" d="m52.495 5.605-2.937-1.26a1.936 1.936 0 0 0-2.443.81L46.19 6.75a14.004 14.004 0 0 0-3.782-.07l-.903-1.664a1.954 1.954 0 0 0-2.425-.882l-2.972 1.18a1.933 1.933 0 0 0-1.157 2.294l.49 1.822a13.961 13.961 0 0 0-2.764 2.716l-1.855-.555a1.94 1.94 0 0 0-2.336 1.085l-1.26 2.94c-.391.901-.04 1.95.813 2.434l1.787 1.027a14.343 14.343 0 0 0 .005 3.583l-1.811.974a1.94 1.94 0 0 0-.886 2.415l1.185 2.96a1.944 1.944 0 0 0 2.304 1.153l2.106-.563c.68.876 1.463 1.665 2.332 2.363l-.632 2.104a1.928 1.928 0 0 0 1.089 2.327l2.936 1.26a1.936 1.936 0 0 0 2.444-.81l1.095-1.888c1.144.163 2.303.192 3.45.072l1.058 1.957a1.954 1.954 0 0 0 2.424.883l2.972-1.18a1.933 1.933 0 0 0 1.157-2.295L52.5 32.33a14.312 14.312 0 0 0 2.658-2.53l2.023.6a1.94 1.94 0 0 0 2.336-1.085l1.265-2.925c.39-.9.04-1.949-.813-2.434l-1.795-1.024c.178-1.2.204-2.419.065-3.62l1.741-.937a1.94 1.94 0 0 0 .886-2.415L59.681 13a1.944 1.944 0 0 0-2.304-1.153l-1.88.503a14.053 14.053 0 0 0-2.479-2.578l.553-1.83a1.918 1.918 0 0 0-1.076-2.338z"/><path style="opacity:.2" d="M6.766 48.73a13.97 13.97 0 0 0 1.25 2.967l-1.508 1.902a1.561 1.561 0 0 0 .117 2.068l2.597 2.597c.56.56 1.446.61 2.067.117l1.89-1.496c.972.56 2.006.997 3.083 1.305l.283 2.431A1.557 1.557 0 0 0 18.089 62h3.674c.788 0 1.452-.59 1.545-1.379l.27-2.345a13.882 13.882 0 0 0 3.305-1.335l1.828 1.446a1.56 1.56 0 0 0 2.067-.117l2.597-2.597c.56-.56.61-1.447.117-2.068L32.071 51.8a13.566 13.566 0 0 0 1.36-3.25l2.19-.252A1.557 1.557 0 0 0 37 46.754V43.08c0-.788-.59-1.453-1.378-1.545l-2.16-.253a13.653 13.653 0 0 0-1.305-3.212l1.33-1.68a1.561 1.561 0 0 0-.118-2.069l-2.59-2.591a1.554 1.554 0 0 0-2.068-.117l-1.631 1.293a13.694 13.694 0 0 0-3.378-1.416l-.247-2.111A1.557 1.557 0 0 0 21.911 28h-3.674c-.788 0-1.452.59-1.545 1.379l-.246 2.11a13.637 13.637 0 0 0-3.464 1.466l-1.693-1.342a1.56 1.56 0 0 0-2.067.117l-2.597 2.597c-.56.56-.61 1.447-.117 2.068l1.415 1.791a13.39 13.39 0 0 0-1.28 3.244l-2.265.259A1.557 1.557 0 0 0 3 43.234v3.674c0 .788.59 1.453 1.378 1.545l2.388.277z"/><path style="fill:#a6a6a6" d="M6.766 47.73a13.97 13.97 0 0 0 1.25 2.967l-1.508 1.902a1.561 1.561 0 0 0 .117 2.068l2.597 2.597c.56.56 1.446.61 2.067.117l1.89-1.496c.972.56 2.006.997 3.083 1.305l.283 2.431A1.557 1.557 0 0 0 18.089 61h3.674c.788 0 1.452-.59 1.545-1.379l.27-2.345a13.882 13.882 0 0 0 3.305-1.335l1.828 1.446a1.56 1.56 0 0 0 2.067-.117l2.597-2.597c.56-.56.61-1.447.117-2.068L32.071 50.8a13.566 13.566 0 0 0 1.36-3.25l2.19-.252A1.557 1.557 0 0 0 37 45.754V42.08c0-.788-.59-1.453-1.378-1.545l-2.16-.253a13.653 13.653 0 0 0-1.305-3.212l1.33-1.68a1.561 1.561 0 0 0-.118-2.069l-2.59-2.591a1.554 1.554 0 0 0-2.068-.117l-1.631 1.293a13.694 13.694 0 0 0-3.378-1.416l-.247-2.111A1.557 1.557 0 0 0 21.911 27h-3.674c-.788 0-1.452.59-1.545 1.379l-.246 2.11a13.637 13.637 0 0 0-3.464 1.466l-1.693-1.342a1.56 1.56 0 0 0-2.067.117l-2.597 2.597c-.56.56-.61 1.447-.117 2.068l1.415 1.791a13.39 13.39 0 0 0-1.28 3.244l-2.265.259A1.557 1.557 0 0 0 3 42.234v3.674c0 .788.59 1.453 1.378 1.545l2.388.277z"/><circle style="opacity:.2" cx="20" cy="45" r="6"/><circle style="fill:#fff" cx="20" cy="44" r="6"/><path style="fill:#ffd52b" d="m52.495 4.605-2.937-1.26a1.936 1.936 0 0 0-2.443.81L46.19 5.75a14.004 14.004 0 0 0-3.782-.07l-.903-1.664a1.954 1.954 0 0 0-2.425-.882l-2.972 1.18a1.933 1.933 0 0 0-1.157 2.294l.49 1.822a13.961 13.961 0 0 0-2.764 2.716l-1.855-.554a1.94 1.94 0 0 0-2.336 1.084l-1.26 2.94c-.391.901-.04 1.95.813 2.434l1.787 1.027a14.343 14.343 0 0 0 .005 3.583l-1.811.974a1.94 1.94 0 0 0-.886 2.415l1.185 2.96a1.944 1.944 0 0 0 2.304 1.153l2.106-.563c.68.876 1.463 1.665 2.332 2.363l-.632 2.104a1.928 1.928 0 0 0 1.089 2.327l2.936 1.26a1.936 1.936 0 0 0 2.444-.81l1.095-1.888c1.144.163 2.303.192 3.45.072l1.058 1.957a1.954 1.954 0 0 0 2.424.883l2.972-1.18a1.933 1.933 0 0 0 1.157-2.295L52.5 31.33a14.312 14.312 0 0 0 2.658-2.53l2.023.6a1.94 1.94 0 0 0 2.336-1.085l1.265-2.925c.39-.9.04-1.949-.813-2.434l-1.795-1.024c.178-1.2.204-2.419.065-3.62l1.741-.937a1.94 1.94 0 0 0 .886-2.415L59.681 12a1.944 1.944 0 0 0-2.304-1.153l-1.88.503a14.054 14.054 0 0 0-2.479-2.578l.553-1.83a1.918 1.918 0 0 0-1.076-2.338z"/><circle style="opacity:.2" cx="44" cy="21" r="6"/><circle style="fill:#fff" cx="44" cy="20" r="6"/><path style="fill:#fff;opacity:.2" d="M18.236 27c-.787 0-1.452.591-1.545 1.379l-.246 2.111c-1.218.326-2.38.819-3.463 1.465l-1.693-1.342a1.561 1.561 0 0 0-2.068.117l-2.596 2.598a1.549 1.549 0 0 0-.37 1.602c.075-.22.195-.427.37-.602l2.596-2.598a1.561 1.561 0 0 1 2.068-.117l1.693 1.342a13.626 13.626 0 0 1 3.463-1.465l.246-2.111A1.557 1.557 0 0 1 18.236 28h3.674c.788 0 1.453.591 1.545 1.379l.246 2.111c1.188.32 2.32.795 3.38 1.416l1.63-1.293a1.555 1.555 0 0 1 2.068.117l2.59 2.59c.178.18.286.398.36.625a1.563 1.563 0 0 0-.36-1.625l-2.59-2.59a1.555 1.555 0 0 0-2.068-.117l-1.63 1.293a13.698 13.698 0 0 0-3.38-1.416l-.246-2.111A1.557 1.557 0 0 0 21.91 27h-3.674zm14.235 10.672-.315.398a13.654 13.654 0 0 1 1.305 3.213l2.16.252A1.557 1.557 0 0 1 37 43.08v-1c0-.788-.591-1.453-1.379-1.545l-2.16-.252a13.526 13.526 0 0 0-.99-2.611zm-24.858.119a13.362 13.362 0 0 0-.97 2.639l-2.264.26A1.557 1.557 0 0 0 3 42.233v1c0-.787.591-1.452 1.379-1.545l2.264-.26a13.398 13.398 0 0 1 1.28-3.243l-.31-.395zm.1 13.29-1.205 1.517a1.544 1.544 0 0 0-.242 1.445c.055-.156.133-.308.242-.445l1.508-1.9c-.113-.2-.2-.413-.303-.618zm24.678.126c-.104.2-.208.399-.32.594l1.421 1.804c.114.144.196.301.252.465a1.55 1.55 0 0 0-.252-1.465l-1.101-1.398zM39.78 3a1.949 1.949 0 0 0-.7.133l-2.97 1.18a1.933 1.933 0 0 0-1.159 2.294l.002.01a1.944 1.944 0 0 1 1.156-1.304l2.971-1.18a1.953 1.953 0 0 1 2.424.883l.904 1.664c1.26-.147 2.53-.125 3.781.07l.926-1.596a1.936 1.936 0 0 1 2.444-.81l2.935 1.261c.555.24.945.71 1.096 1.256a1.914 1.914 0 0 0-1.096-2.256L49.56 3.344a1.936 1.936 0 0 0-2.444.81L46.19 5.75a14.002 14.002 0 0 0-3.78-.07l-.905-1.664A1.946 1.946 0 0 0 39.779 3zm-4.56 5.605a13.946 13.946 0 0 0-2.544 2.541l-1.854-.554a1.94 1.94 0 0 0-2.336 1.084l-1.261 2.94a1.909 1.909 0 0 0-.086 1.261c.024-.088.048-.176.086-.262l1.261-2.94a1.94 1.94 0 0 1 2.336-1.083l1.854.554A13.977 13.977 0 0 1 35.44 9.43l-.22-.825zm18.038.375-.24.793a14.058 14.058 0 0 1 2.478 2.579l1.881-.504A1.944 1.944 0 0 1 59.682 13l1.183 2.96c.027.069.042.139.06.208.105-.389.097-.81-.06-1.207L59.682 12a1.944 1.944 0 0 0-2.305-1.152l-1.88.504a14.051 14.051 0 0 0-2.24-2.372zM29.74 19.027c-.025.436-.022.871-.008 1.307.016-.42.042-.84.094-1.258l-.086-.049zm28.573.244-.075.041c.04.345.063.691.076 1.038.013-.36.014-.72-.002-1.079zm-28.569 2.436-1.724.928a1.932 1.932 0 0 0-.946 2.207c.135-.501.46-.947.946-1.207l1.81-.975c-.04-.317-.067-.635-.086-.953zm28.537.287c-.025.314-.061.628-.107.94l1.795 1.023c.461.263.77.692.9 1.172a1.919 1.919 0 0 0-.9-2.172l-1.688-.963zM34.824 31.75l-.396 1.316a1.923 1.923 0 0 0-.012 1.059c.005-.02.006-.04.012-.059l.633-2.103c-.083-.067-.155-.145-.237-.213zm17.899.406c-.075.057-.147.118-.223.174l.553 2.053c.084-.316.092-.655.002-.99l-.332-1.237z"/></svg>
